icons/black/google_movies.svg

<?xml version="1.0" encoding="UTF-8"?><svg id="a" xmlns="http://www.w3.org/2000/svg" viewBox="0 0 48 48"><defs><style>.b{fill:none;stroke:#000;stroke-linecap:round;stroke-linejoin:round;}</style></defs><path class="b" d="M10.1402,11h1.86c.8671,0,1.57.7029,1.57,1.57v1.86c0,.8671-.7029,1.57-1.57,1.57h-1.86c-.8671,0-1.57-.7029-1.57-1.57v-1.82c-.0221-.8668.6627-1.5874,1.5295-1.6095.0135-.0003.027-.0005.0405-.0005ZM36.0002,11h1.86c.8671,0,1.57.7029,1.57,1.57v1.86c0,.8671-.7029,1.57-1.57,1.57h-1.86c-.8671,0-1.57-.7029-1.57-1.57v-1.82c-.0221-.8668.6627-1.5874,1.5295-1.6095.0135-.0003.027-.0005.0405-.0005ZM10.1402,18h1.86c.8671,0,1.57.7029,1.57,1.57v1.86c0,.8671-.7029,1.57-1.57,1.57h-1.86c-.8671,0-1.57-.7029-1.57-1.57v-1.85c-.0055-.8671.6929-1.5744,1.56-1.58.0033,0,.0067,0,.01,0ZM36.0002,18h1.86c.8671,0,1.57.7029,1.57,1.57v1.86c0,.8671-.7029,1.57-1.57,1.57h-1.86c-.8671,0-1.57-.7029-1.57-1.57v-1.85c-.0055-.8671.6929-1.5744,1.56-1.58.0033,0,.0067,0,.01,0ZM10.1402,25h1.86c.8671,0,1.57.7029,1.57,1.57v1.85c.0055.8671-.6929,1.5744-1.56,1.58-.0033,0-.0067,0-.01,0h-1.86c-.8671,0-1.57-.7029-1.57-1.57,0-.0033,0-.0067,0-.01v-1.86c.0055-.8632.7068-1.56,1.57-1.56ZM36.0002,25h1.86c.8671,0,1.57.7029,1.57,1.57v1.85c.0055.8671-.6929,1.5744-1.56,1.58-.0033,0-.0067,0-.01,0h-1.86c-.8671,0-1.57-.7029-1.57-1.57,0-.0033,0-.0067,0-.01v-1.86c.0055-.8632.7068-1.56,1.57-1.56ZM10.1402,32h1.86c.8671,0,1.57.7029,1.57,1.57v1.86c0,.8671-.7029,1.57-1.57,1.57h-1.86c-.8671,0-1.57-.7029-1.57-1.57v-1.9c.0217-.8514.7183-1.5303,1.57-1.53ZM36.0002,32h1.86c.8671,0,1.57.7029,1.57,1.57v1.86c0,.8671-.7029,1.57-1.57,1.57h-1.86c-.8671,0-1.57-.7029-1.57-1.57v-1.9c.0217-.8514.7183-1.5303,1.57-1.53Z"/><rect class="b" x="4.5" y="8.5" width="39" height="31" rx="4" ry="4"/></svg>

<svg id="Layer_2" data-name="Layer 2" xmlns="http://www.w3.org/2000/svg" viewBox="0 0 48 48"><defs><style>.cls-1{fill:none;stroke:#000;stroke-linecap:round;stroke-linejoin:round;}</style></defs><path class="cls-1" d="M6.45,8.4A2,2,0,0,0,4.5,10.35v27.3a2,2,0,0,0,2,2h35.1a2,2,0,0,0,2-2V10.35a2,2,0,0,0-2-1.95ZM10.14,11H12a1.57,1.57,0,0,1,1.57,1.57v1.86A1.57,1.57,0,0,1,12,16H10.14a1.57,1.57,0,0,1-1.57-1.57V12.61A1.57,1.57,0,0,1,10.14,11ZM36,11h1.86a1.57,1.57,0,0,1,1.57,1.57v1.86A1.57,1.57,0,0,1,37.86,16H36a1.57,1.57,0,0,1-1.57-1.57V12.61A1.57,1.57,0,0,1,36,11ZM10.14,18H12a1.57,1.57,0,0,1,1.57,1.57v1.86A1.57,1.57,0,0,1,12,23H10.14a1.57,1.57,0,0,1-1.57-1.57V19.58A1.57,1.57,0,0,1,10.14,18ZM36,18h1.86a1.57,1.57,0,0,1,1.57,1.57v1.86A1.57,1.57,0,0,1,37.86,23H36a1.57,1.57,0,0,1-1.57-1.57V19.58A1.57,1.57,0,0,1,36,18ZM10.14,25H12a1.57,1.57,0,0,1,1.57,1.57v1.85A1.57,1.57,0,0,1,12,30H10.14a1.57,1.57,0,0,1-1.57-1.58V26.56A1.57,1.57,0,0,1,10.14,25ZM36,25h1.86a1.57,1.57,0,0,1,1.57,1.57v1.85A1.57,1.57,0,0,1,37.86,30H36a1.57,1.57,0,0,1-1.57-1.58V26.56A1.57,1.57,0,0,1,36,25ZM10.14,32H12a1.57,1.57,0,0,1,1.57,1.57v1.86A1.57,1.57,0,0,1,12,37H10.14a1.57,1.57,0,0,1-1.57-1.57V33.53A1.57,1.57,0,0,1,10.14,32ZM36,32h1.86a1.57,1.57,0,0,1,1.57,1.57v1.86A1.57,1.57,0,0,1,37.86,37H36a1.57,1.57,0,0,1-1.57-1.57V33.53A1.57,1.57,0,0,1,36,32Z"/></svg>
